X: 95
T: Zacznicie nową możnemu
C: Mikołaj Gomółka
%%abc-version 2.0
%%abcx-abcm2ps-target-version 5.9.1 (29 Sep 2008)
%%abc-creator hum2abc beta
%%abcx-conversion-date 2021/10/04 07:59:10
%%abc-edited-by Anna Matuszewska
%%abcx-initial-encoding-date 2020-02-17
%%humdrum-veritas 3694761266
%%humdrum-veritas-data 2766162094
%%linebreak <none>
%%barnumbers 0
L: 1/4
M: C|
N: Derived from pl-wn--sd-xvi-qu-273--096_gomolka-mikolaj--zacznicie-nowa-moznemu.krn
%%staves [1 2 3 4]
V: 1 clef=treble
V: 2
V: 3 clef=alto
V: 4
K: F
[V:1] F4c3c | 
[V:2] z4E4 | 
[V:3] z4E4 | 
[V:4] C,8 [|] 
[V:1] c2A2d4 | 
[V:2] F2>A2G3F | 
[V:3] F2>F2D2D2 | 
[V:4] F,2>F,2B,,2B,,2 [|] 
[V:1] c2>B2A2c2 | 
[V:2] EDE2D2F2 | 
[V:3] EF2EF2F2 | 
[V:4] C,2C,2F,2F,2 [|] 
[V:1] d2f2e2c2 | 
[V:2] G2>F2EDE2 | 
[V:3] D2D2E2E2 | 
[V:4] B,2B,2C2C,2 [|] 
[V:1] c2B2c4 | 
[V:2] F2EDC4 | 
[V:3] F2D2C4 | 
[V:4] F,2G,2A,4 [|] 
[V:1] f2>f2e2d3 | 
[V:2] A2>A2A2A2 | 
[V:3] A2>A2G2G2 | 
[V:4] F,2>F,2C2G,2 [|] 
[V:1] dd2f4 | 
[V:2] G2G2FGA2 | 
[V:3] F2F2F2CD | 
[V:4] B,2B,2F,G,A,B, [|] 
[V:1] e2c4c2 | 
[V:2] E2F4F2 | 
[V:3] E2E2C4 | 
[V:4] C2A,4F,2 [|] 
[V:1] A2A2d2d2 | 
[V:2] D2D2GFED | 
[V:3] C2FEDCB,A, | 
[V:4] F,2D,2B,,2B,,2 [|] 
[V:1] c2>B2A4 |]  
[V:2] CD2CD4 |]  
[V:3] G,F,G,2F,4 |]  
[V:4] C,4F,4 [|] 


